src/assets/logo-breez-header.svg

<svg width="100" height="38" viewBox="0 0 100 38" fill="none" xmlns="http://www.w3.org/2000/svg">
<path d="M20.8955 24.9263C20.8955 23.7996 19.9893 22.879 18.8639 22.879H6.0827C4.96462 22.879 4.05115 23.7922 4.05115 24.9263C4.05115 26.053 4.95731 26.9735 6.0827 26.9735H18.8639C19.982 26.9662 20.8955 26.053 20.8955 24.9263Z" fill="white"/>
<path d="M98.1188 30.05H91.1727C90.9092 30.05 90.7555 29.7602 90.8872 29.5373L98.9825 16.3695C99.0411 16.2803 99.0777 16.1837 99.1216 16.0871C99.1216 16.0797 99.1289 16.0723 99.1289 16.0648C99.1582 15.9905 99.1802 15.9162 99.1948 15.8419C99.2094 15.7825 99.2314 15.723 99.2387 15.6636C99.246 15.6413 99.246 15.6115 99.246 15.5892C99.2607 15.5001 99.2753 15.4109 99.2753 15.3143C99.2753 14.2591 98.4263 13.3971 97.3869 13.3971H87.3958C86.4077 13.3971 85.5294 14.1328 85.4342 15.1285C85.3244 16.2729 86.2101 17.2315 87.3153 17.2315H93.3905C93.654 17.2315 93.8077 17.5213 93.6759 17.7442L85.6319 30.8229C85.5806 30.912 85.544 31.0012 85.5001 31.0904C85.3684 31.3505 85.2878 31.6403 85.2878 31.9524C85.2878 33.0076 86.1296 33.8696 87.1763 33.8696H98.1115C99.1509 33.8696 99.9999 33.0076 99.9999 31.9524C100.007 30.912 99.1582 30.05 98.1188 30.05Z" fill="white"/>
<path d="M47.8252 13.2364C47.8178 13.2364 47.8105 13.2364 47.8105 13.229C47.7884 13.229 47.7736 13.2215 47.7516 13.214C47.7368 13.214 47.7148 13.214 47.7 13.2066C47.6853 13.2066 47.6779 13.2066 47.6632 13.2066C47.2142 13.1693 46.1761 13.1693 45.6314 13.2364V13.2439C44.6081 13.3558 43.4891 13.7065 42.7087 14.3035C42.3701 14.5646 42.0609 14.8482 41.7811 15.1541C41.7517 14.102 40.9124 13.2588 39.8671 13.2588C38.807 13.2588 37.953 14.1319 37.953 15.1989V32.13C37.953 32.3986 38.0045 32.6523 38.1076 32.8911C38.4021 33.5925 39.0867 34.085 39.8818 34.085C40.9419 34.085 41.8032 33.212 41.8032 32.1374V32.018V30.1973V22.8996C41.8032 21.1834 42.2597 19.7656 43.1652 18.6911C43.9087 17.8106 44.7332 17.3032 45.6682 17.1539C46.132 17.0942 46.6031 17.1092 46.6031 17.1092H47.5454C48.6055 17.1092 49.4669 16.2361 49.4669 15.1616C49.4595 14.1766 48.7528 13.3782 47.8252 13.2364Z" fill="white"/>
<path d="M29.2997 16.5302C30.2408 15.2095 30.7995 13.5904 30.7995 11.8294C30.7995 7.38225 27.2486 3.77827 22.867 3.77827H21.7789V2.90526C21.7789 1.79347 20.8894 0.898071 19.8013 0.898071C18.7059 0.898071 17.8237 1.80093 17.8237 2.90526V3.77827H15.8094V3.78573H14.5375C13.4789 3.78573 12.6261 4.65875 12.6261 5.72576C12.6261 6.80024 13.4862 7.6658 14.5375 7.6658H15.8094V7.67326H22.8376C25.0357 7.67326 26.8149 9.47898 26.8149 11.71V11.7175C26.8149 13.8888 25.124 15.702 22.9993 15.7468C22.6097 15.7542 21.4334 15.7468 21.4334 15.7468C21.4261 15.7468 21.4114 15.7468 21.404 15.7468H21.3893C20.2204 15.7766 19.2867 16.7989 19.4117 18.0226C19.522 19.0896 20.463 19.8731 21.5216 19.8731H25.5357C25.9474 19.8731 26.3664 19.9029 26.7634 20.0074C28.9174 20.5819 30.5128 22.5667 30.5128 24.9395C30.5128 27.7526 28.2631 30.0358 25.4916 30.0358H13.3759H11.0969C10.0236 30.0358 9.06784 30.8342 8.96491 31.9162C8.84729 33.1548 9.81036 34.1995 11.0087 34.1995H17.8237V35.0949C17.8237 36.2066 18.7133 37.102 19.8013 37.102C20.8967 37.102 21.7789 36.1992 21.7789 35.0949V34.1995H23.4992C23.4992 34.1995 23.4992 34.1995 23.5066 34.1995H25.668C30.6892 34.1995 34.7547 30.0657 34.7547 24.9768C34.7621 21.2012 32.5124 17.948 29.2997 16.5302Z" fill="white"/>
<path d="M13.2196 17.8148C13.2196 16.6881 12.3084 15.7676 11.1768 15.7676H2.04283C0.918539 15.7676 0 16.6807 0 17.8148C0 18.9415 0.91119 19.8621 2.04283 19.8621H11.1768C12.3084 19.8621 13.2196 18.9415 13.2196 17.8148Z" fill="white"/>
<path d="M9.29228 13.828H18.4262C19.5505 13.828 20.4691 12.9149 20.4691 11.7808C20.4691 10.654 19.5579 9.73352 18.4262 9.73352H9.29228C8.16799 9.73352 7.24945 10.6467 7.24945 11.7808C7.24945 12.9075 8.16064 13.828 9.29228 13.828Z" fill="white"/>
<path fill-rule="evenodd" clip-rule="evenodd" d="M63.6184 15.4661C64.9246 16.7832 65.67 18.398 65.8471 20.2882V20.303C65.9357 21.1662 65.8397 22.7364 65.8397 22.7364C65.8397 24.0089 64.8139 25.0433 63.552 25.0433H54.4967C54.3122 25.0433 54.1646 25.1921 54.1646 25.3781V25.9363C54.1646 27.3799 54.6148 28.5036 55.5521 29.3593C56.4893 30.2151 57.7218 30.6467 59.2199 30.6467C59.6184 30.6467 60.0465 30.6021 60.4376 30.5277C61.1387 30.3639 61.9431 29.9993 62.504 29.5677C62.5372 29.5454 62.5686 29.5231 62.5999 29.5007C62.6313 29.4784 62.6627 29.4561 62.6959 29.4338C62.7033 29.43 62.7106 29.4245 62.718 29.4189C62.7254 29.4133 62.7328 29.4077 62.7402 29.404C62.8066 29.3593 62.8804 29.3147 62.9468 29.2775C62.9505 29.2738 62.956 29.2719 62.9616 29.27C62.9671 29.2682 62.9726 29.2663 62.9763 29.2626L63.1756 29.1733C63.1903 29.1733 63.2051 29.1659 63.2198 29.1584L63.2199 29.1584C63.2937 29.1287 63.3675 29.1063 63.4486 29.0914C63.456 29.0914 63.4652 29.0896 63.4745 29.0877C63.4837 29.0859 63.4929 29.084 63.5003 29.084C63.5741 29.0691 63.6553 29.0617 63.7365 29.0617H63.7586H63.766C64.5409 29.0617 65.1977 29.5677 65.4338 30.2746C65.4338 30.2895 65.4412 30.3044 65.4486 30.3193C65.456 30.3565 65.4634 30.3863 65.4707 30.416C65.4855 30.4532 65.4929 30.483 65.5003 30.5202C65.5224 30.617 65.5298 30.7211 65.5298 30.8179V30.8476V30.8849C65.5298 30.9518 65.5224 31.0262 65.515 31.0932C65.5076 31.1081 65.5076 31.1155 65.5076 31.1304C65.4929 31.2123 65.4707 31.2941 65.4486 31.3685C65.4449 31.3797 65.4412 31.389 65.4375 31.3983C65.4339 31.4076 65.4302 31.4169 65.4265 31.4281C65.4117 31.4876 65.3896 31.5471 65.3601 31.5992C65.3578 31.6037 65.3549 31.6089 65.3517 31.6146C65.3444 31.6276 65.3357 31.6432 65.3305 31.6588C65.2936 31.7332 65.2493 31.8002 65.2051 31.8671C64.9173 32.3285 64.3859 32.775 63.5667 33.2512C62.3712 33.9508 60.873 34.3005 59.1166 34.3005C56.5483 34.3005 54.4229 33.5117 52.7919 31.9639C51.1536 30.416 50.3196 28.3473 50.3196 25.8321V21.4416C50.3196 19.2091 51.1019 17.2595 52.6443 15.6372C54.1868 14.0075 56.0686 13.1815 58.2384 13.1815C60.2974 13.1815 62.1129 13.948 63.6184 15.4661ZM61.4487 21.7467C61.8546 21.7467 62.1867 21.4193 62.1867 21.01V20.7495C62.1867 19.5663 61.8029 18.7924 61.0207 17.8994C60.2458 17.0213 59.3233 16.5972 58.2015 16.5972C57.0945 16.5972 56.172 16.9916 55.3676 17.8101C54.5632 18.6287 54.172 19.611 54.172 20.8091V20.9951C54.172 21.4044 54.5041 21.7393 54.91 21.7393L61.4487 21.7467Z" fill="white"/>
<path fill-rule="evenodd" clip-rule="evenodd" d="M81.5291 15.4661C82.8353 16.7832 83.5807 18.398 83.7578 20.2882V20.303C83.8464 21.1662 83.7505 22.7364 83.7505 22.7364C83.7505 24.0089 82.7246 25.0433 81.4627 25.0433H72.4074C72.2229 25.0433 72.0753 25.1921 72.0753 25.3781V25.9363C72.0753 27.3799 72.5255 28.5036 73.4628 29.3593C74.4 30.2151 75.6325 30.6467 77.1306 30.6467C77.5291 30.6467 77.9572 30.6021 78.3483 30.5277C79.0494 30.3639 79.8538 29.9993 80.4147 29.5677C80.4479 29.5454 80.4793 29.5231 80.5106 29.5007C80.542 29.4784 80.5734 29.4561 80.6066 29.4338C80.614 29.43 80.6213 29.4245 80.6287 29.4189C80.6361 29.4133 80.6435 29.4077 80.6509 29.404C80.7173 29.3593 80.7911 29.3147 80.8575 29.2775C80.8612 29.2738 80.8667 29.2719 80.8723 29.27C80.8778 29.2682 80.8833 29.2663 80.887 29.2626L81.0863 29.1733C81.101 29.1733 81.1158 29.1659 81.1305 29.1584L81.1306 29.1584C81.2044 29.1287 81.2782 29.1063 81.3593 29.0914C81.3667 29.0914 81.3759 29.0896 81.3852 29.0877C81.3944 29.0859 81.4036 29.084 81.411 29.084C81.4848 29.0691 81.566 29.0617 81.6472 29.0617H81.6693H81.6767C82.4516 29.0617 83.1084 29.5677 83.3446 30.2746C83.3446 30.2895 83.3519 30.3044 83.3593 30.3193C83.3667 30.3565 83.3741 30.3863 83.3814 30.416C83.3962 30.4532 83.4036 30.483 83.411 30.5202C83.4331 30.617 83.4405 30.7211 83.4405 30.8179V30.8476V30.8849C83.4405 30.9518 83.4331 31.0262 83.4257 31.0932C83.4184 31.1081 83.4184 31.1155 83.4184 31.1304C83.4036 31.2123 83.3815 31.2941 83.3593 31.3685C83.3556 31.3797 83.3519 31.389 83.3482 31.3983C83.3446 31.4076 83.3409 31.4169 83.3372 31.4281C83.3224 31.4876 83.3003 31.5471 83.2708 31.5992C83.2685 31.6037 83.2656 31.6089 83.2624 31.6146C83.2551 31.6276 83.2464 31.6432 83.2412 31.6588C83.2043 31.7332 83.1601 31.8002 83.1158 31.8671C82.828 32.3285 82.2966 32.775 81.4774 33.2512C80.2819 33.9508 78.7837 34.3005 77.0273 34.3005C74.4591 34.3005 72.3336 33.5117 70.7026 31.9639C69.0643 30.416 68.2303 28.3473 68.2303 25.8321V21.4416C68.2303 19.2091 69.0126 17.2595 70.555 15.6372C72.0975 14.0075 73.9794 13.1815 76.1491 13.1815C78.2081 13.1815 80.0236 13.948 81.5291 15.4661ZM79.3594 21.7467C79.7653 21.7467 80.0974 21.4193 80.0974 21.01V20.7495C80.0974 19.5663 79.7136 18.7924 78.9314 17.8994C78.1565 17.0213 77.234 16.5972 76.1122 16.5972C75.0052 16.5972 74.0827 16.9916 73.2783 17.8101C72.4739 18.6287 72.0827 19.611 72.0827 20.8091V20.9951C72.0827 21.4044 72.4148 21.7393 72.8207 21.7393L79.3594 21.7467Z" fill="white"/>
</svg>

<svg xmlns="http://www.w3.org/2000/svg" width="100" height="38" fill="none" viewBox="0 0 100 38"><path fill="#fff" d="M20.896 24.926a2.04 2.04 0 0 0-2.032-2.047H6.083a2.04 2.04 0 0 0-2.032 2.047 2.04 2.04 0 0 0 2.032 2.048h12.78a2.05 2.05 0 0 0 2.032-2.048m77.224 5.124h-6.946a.338.338 0 0 1-.286-.513l8.096-13.167c.058-.09.095-.186.139-.283 0-.007.007-.015.007-.022a1.3 1.3 0 0 0 .066-.223c.014-.06.036-.119.044-.178.007-.023.007-.053.007-.075.015-.089.03-.178.03-.275 0-1.055-.85-1.917-1.89-1.917h-9.99c-.988 0-1.867.736-1.962 1.732a1.903 1.903 0 0 0 1.881 2.103h6.076c.263 0 .417.29.285.512l-8.044 13.079c-.051.089-.088.178-.132.267-.132.26-.212.55-.212.862 0 1.056.842 1.918 1.888 1.918h10.936c1.039 0 1.888-.862 1.888-1.918a1.894 1.894 0 0 0-1.881-1.902M47.825 13.236c-.007 0-.015 0-.015-.007-.022 0-.036-.007-.058-.015-.015 0-.037 0-.052-.007h-.037c-.449-.038-1.487-.038-2.032.03v.007c-1.023.112-2.142.463-2.922 1.06a7.3 7.3 0 0 0-.928.85c-.03-1.052-.869-1.895-1.914-1.895-1.06 0-1.914.873-1.914 1.94V32.13q0 .403.155.761a1.93 1.93 0 0 0 1.774 1.194c1.06 0 1.921-.873 1.921-1.948V22.9c0-1.717.457-3.134 1.362-4.209.744-.88 1.568-1.388 2.503-1.537.464-.06.935-.045.935-.045h.942c1.06 0 1.922-.873 1.922-1.947a1.944 1.944 0 0 0-1.642-1.926"/><path fill="#fff" d="M29.3 16.53a8.07 8.07 0 0 0 1.5-4.7c0-4.448-3.551-8.052-7.933-8.052h-1.088v-.873c0-1.112-.89-2.007-1.978-2.007-1.095 0-1.977.903-1.977 2.007v.873h-2.015v.008h-1.271c-1.06 0-1.912.873-1.912 1.94 0 1.074.86 1.94 1.912 1.94h1.271v.007h7.029c2.198 0 3.977 1.806 3.977 4.037v.007c0 2.172-1.691 3.985-3.816 4.03-.39.007-1.566 0-1.566 0h-.044a2.05 2.05 0 0 0-1.977 2.276c.11 1.067 1.051 1.85 2.11 1.85h4.014c.411 0 .83.03 1.227.134 2.154.575 3.75 2.56 3.75 4.932 0 2.814-2.25 5.097-5.021 5.097H11.096c-1.072 0-2.028.798-2.131 1.88-.118 1.239.845 2.284 2.044 2.284h6.815v.895c0 1.112.89 2.007 1.977 2.007 1.096 0 1.978-.903 1.978-2.007V34.2h3.889c5.021 0 9.087-4.134 9.087-9.223A9.2 9.2 0 0 0 29.3 16.53"/><path fill="#fff" d="M13.22 17.815a2.045 2.045 0 0 0-2.043-2.047H2.043A2.045 2.045 0 0 0 0 17.815c0 1.127.911 2.047 2.043 2.047h9.134c1.131 0 2.043-.92 2.043-2.047m-3.928-3.987h9.134a2.045 2.045 0 0 0 2.043-2.047 2.045 2.045 0 0 0-2.043-2.047H9.292A2.045 2.045 0 0 0 7.25 11.78c0 1.127.912 2.047 2.043 2.047"/><path fill="#fff" fill-rule="evenodd" d="M63.618 15.466c1.307 1.317 2.052 2.932 2.23 4.822v.015c.088.863-.008 2.433-.008 2.433a2.3 2.3 0 0 1-2.288 2.307h-9.055a.33.33 0 0 0-.332.335v.558c0 1.444.45 2.568 1.387 3.423.937.856 2.17 1.288 3.668 1.288.398 0 .827-.045 1.218-.12.7-.163 1.505-.528 2.066-.96l.096-.066.096-.067.022-.015q.011-.009.022-.015a3 3 0 0 1 .236-.141l.2-.09q.022-.002.044-.015a1.2 1.2 0 0 1 .255-.07l.025-.004a1.2 1.2 0 0 1 .236-.022h.03a1.76 1.76 0 0 1 1.683 1.257c.007.038.014.067.022.097a1 1 0 0 1 .03.104c.021.097.029.201.029.298v.067c0 .067-.008.141-.015.208-.007.015-.007.023-.007.037a2 2 0 0 1-.06.239l-.01.03q-.006.013-.011.03a.7.7 0 0 1-.075.186.3.3 0 0 0-.022.044q-.056.11-.125.208c-.288.461-.82.908-1.638 1.384-1.196.7-2.694 1.05-4.45 1.05-2.569 0-4.694-.79-6.325-2.337-1.638-1.548-2.472-3.617-2.472-6.132v-4.39c0-2.233.782-4.183 2.324-5.805 1.543-1.63 3.425-2.456 5.594-2.456 2.06 0 3.875.767 5.38 2.285m-2.17 6.28a.737.737 0 0 0 .739-.736v-.26c0-1.184-.384-1.958-1.166-2.85-.775-.879-1.698-1.303-2.82-1.303-1.107 0-2.029.395-2.833 1.213s-1.196 1.801-1.196 3v.185c0 .41.332.744.738.744zm20.082-6.28c1.305 1.317 2.05 2.932 2.228 4.822v.015c.088.863-.007 2.433-.007 2.433a2.3 2.3 0 0 1-2.288 2.307h-9.056a.33.33 0 0 0-.332.335v.558c0 1.444.45 2.568 1.388 3.423.937.856 2.17 1.288 3.668 1.288.398 0 .826-.045 1.217-.12.701-.163 1.506-.528 2.067-.96l.096-.066q.046-.034.096-.067l.022-.015q.01-.009.022-.015a3 3 0 0 1 .236-.141l.2-.09q.021-.002.043-.015a1.2 1.2 0 0 1 .255-.07l.026-.004a1.2 1.2 0 0 1 .236-.022h.03a1.76 1.76 0 0 1 1.682 1.257l.022.097a1 1 0 0 1 .03.104c.022.097.03.201.03.298v.067c0 .067-.008.141-.015.208-.008.015-.008.023-.008.037a2 2 0 0 1-.07.268l-.01.03a.7.7 0 0 1-.076.187 2 2 0 0 1-.147.253c-.287.46-.818.907-1.638 1.383-1.195.7-2.693 1.05-4.45 1.05-2.568 0-4.693-.79-6.324-2.337-1.639-1.548-2.473-3.617-2.473-6.132v-4.39c0-2.233.783-4.183 2.325-5.805 1.542-1.63 3.424-2.456 5.594-2.456 2.06 0 3.875.767 5.38 2.285m-2.17 6.28a.737.737 0 0 0 .737-.736v-.26c0-1.184-.383-1.958-1.166-2.85-.775-.879-1.697-1.303-2.819-1.303-1.107 0-2.03.395-2.834 1.213s-1.195 1.801-1.195 3v.185c0 .41.332.744.738.744z" clip-rule="evenodd"/></svg>
